X: 191099
T: Scartaglen (A)
T: Danny Green's
T: Darby's Cross
S: "Johnny O'Leary of Sliabh Luachra" (#41)
Z: B.Black
L: 1/8
M: 2/4
Q: 280
R: polka
K: D
B|AF AF/A/|BG BB|c/B/A/B/ ce|ed f/e/d/B/|
AF AF/A/|BG B2|c/B/A/B/ ce|1 ed d :|2\
ed d2||
A2 g2|fe ee/d/|ef ga|ba f/g/a/f/|
ef gf/g/|fe e2|ef gc|ed d2 :|
